X: 1
T: Athole Brose  [D/Dm]
T: Niel Gow's Favorite
S: from Barbara McOwen
C: Arr. T. Traub 2003-7-24
K: Dmix
M: 4/4
L: 1/16
G2 |\
"D"F3D DDD2 A,3D D3G | "D"F3D DDD2 "G"GB3 "A"A3G |\
"D"F3D DDD2 A,D3 D3=F | "C"E=FG2 C3E c3G E2 :|
|: C2 |\
"Dm"Dd3 d3c d3e d3c | "Dm"Ad3 d3e "C"=f3de3c |\
"Dm"dd3 =f3d e3c f3d | "C"c3d c3G EC3 G3E :|
